!!!!SEGMENT: pl-stab--9b--001-004_rodowski-aleksander--vespere-de-confessoribus-laudate-pueri.krn
!!!cenid: 18xx:3471
!!!COM: Rodowski, Aleksander
!!!COM-rismid: pe30009627
!!!CDT: <1790->1810
!!!CNT: Polish
!!!OPR: Vespere de Confessoribus
!!!OTL: Laudate pueri
!!!OMV: 004
!!!PDT:
!!!AGN: Sacred; Vespers
!!!SMS-siglum: PL-STAb
!!!SMS-shelfmark: 9b
!!!SMS-shelfwork: 001-004 M
!!!SMS-variant:
!!!SMS-altvar:
!!!NIFC-rismid: 301050672
!!!URL-scan: https://repozytorium.nifc.pl/islandora/object/pl-stab%3A2141/datastream/PDF/view
!!!ONB-nifc: UWAGA: części Nieszporów: 1. Domine ad adjuvandum, 2. Dixit Dominus, 3. De torrente, 4. Laudate pueri, 5. Magnificat, 6. Salve Regina
!!!key: C
**kern	**fba	**dynam	**kern	**dynam	**kern	**dynam	**kern	**text	**text	**kern	**text	**text	**kern	**kern	**kern	**kern
*	*	*	*group4	*	*group4	*	*group3	*	*	*group3	*	*	*group2	*group2	*group1	*group1
*part9	*part9	*part9	*part8	*part8	*part7	*part7	*part6	*part6	*part6	*part5	*part5	*part5	*part4	*part3	*part2	*part1
*staff9	*	*	*staff8	*	*staff7	*	*staff6	*staff6	*staff6	*staff5	*staff5	*staff5	*staff4	*staff3	*staff2	*staff1
*I"Organo	*	*	*I"Violino Secundo	*	*I"Violino Primo	*	*I"Baſso	*	*	*I"Canto.	*	*	*I"Corno II	*I"Corno I	*I"Clarinetto Secundo	*I"Clarinetto Primo
*I'org	*	*	*I'vl 2	*	*I'vl 1	*	*I'B	*	*	*I'S	*	*	*I'cor 2	*I'cor 1	*I'cl 2	*I'cl 1
*Iorgan	*	*	*Ivioln	*	*Ivioln	*	*Ibass	*	*	*Isoprn	*	*	*Icor	*Icor	*Iclars	*Iclars
*ICklav	*	*	*ICstr	*	*ICstr	*	*ICvox	*	*	*ICvox	*	*	*ICbras	*ICbras	*ICww	*ICww
*IGcont	*	*	*	*	*	*	*IGsolo	*	*	*IGsolo	*	*	*	*	*	*
*>[A,B,C,B,D,B,E,B,F,B]	*	*	*>[A,B,C,B,D,B,E,B,F,B]	*	*>[A,B,C,B,D,B,E,B,F,B]	*	*>[A,B,C,B,D,B,E,B,F,B]	*	*	*>[A,B,C,B,D,B,E,B,F,B]	*	*	*>[A,B,C,B,D,B,E,B,F,B]	*>[A,B,C,B,D,B,E,B,F,B]	*>[A,B,C,B,D,B,E,B,F,B]	*>[A,B,C,B,D,B,E,B,F,B]
*>A	*	*	*>A	*	*>A	*	*>A	*	*	*>A	*	*	*>A	*>A	*>A	*>A
*clefF4	*	*	*clefG2	*	*clefG2	*	*clefF4	*	*	*clefC1	*	*	*clefG2	*clefG2	*clefG2	*clefG2
*	*	*	*	*	*	*	*	*	*	*	*	*	*ITrd5c9	*ITrd5c9	*ITrd0c0	*ITrd0c0
*k[]	*	*	*k[]	*	*k[]	*	*k[]	*	*	*k[]	*	*	*k[]	*k[]	*k[]	*k[]
*C:	*	*	*C:	*	*C:	*	*C:	*	*	*C:	*	*	*C:	*C:	*C:	*C:
*M2/4	*	*	*M2/4	*	*M2/4	*	*M2/4	*	*	*M2/4	*	*	*M2/4	*M2/4	*M2/4	*M2/4
=1	=1	=1	=1	=1	=1	=1	=1	=1	=1	=1	=1	=1	=1	=1	=1	=1
!	!	!LO:DY:a:t=p.	!LO:TX:a:i:t=Andante	!	!LO:TX:a:i:t=andante	!	!LO:TX:a:i:t=andante	!	!	!LO:TX:a:i:t=andante	!	!	!	!	!LO:TX:a:i:t=Andante	!LO:TX:a:i:t=andante
8c\	.	p	16c/LL	.	4cc\	.	2r	.	.	2r	.	.	2ryy	2ryy	2r	2r
.	.	.	16e/	.	.	.	.	.	.	.	.	.	.	.	.	.
!	!	!	!	!LO:DY:b:t=p.	!	!	!	!	!	!	!	!	!	!	!	!
8r	.	.	16g/	p	.	.	.	.	.	.	.	.	.	.	.	.
.	.	.	16e/JJ	.	.	.	.	.	.	.	.	.	.	.	.	.
!	!	!	!	!	!	!LO:DY:b:t=p.	!	!	!	!	!	!	!	!	!	!
8G\	4	.	16c/LL	.	16ee\LL	p	.	.	.	.	.	.	.	.	.	.
.	.	.	16e/	.	16gg\	.	.	.	.	.	.	.	.	.	.	.
8r	.	.	16d/	.	16ff\	.	.	.	.	.	.	.	.	.	.	.
.	.	.	16f/JJ	.	16ee\JJ	.	.	.	.	.	.	.	.	.	.	.
=2	=2	=2	=2	=2	=2	=2	=2	=2	=2	=2	=2	=2	=2	=2	=2	=2
16c\LL	.	.	16f/LL	.	16dd\LL	.	2r	.	.	2r	.	.	2ryy	2ryy	2r	2r
16G\	.	.	16e/	.	16cc\J	.	.	.	.	.	.	.	.	.	.	.
16E\	.	.	16g/	.	8cc\J	.	.	.	.	.	.	.	.	.	.	.
16G\JJ	.	.	16e/JJ	.	.	.	.	.	.	.	.	.	.	.	.	.
8C/	.	.	8c/	.	16r	.	.	.	.	.	.	.	.	.	.	.
.	.	.	.	.	16dd\LL	.	.	.	.	.	.	.	.	.	.	.
8r	.	.	8r	.	16ee\	.	.	.	.	.	.	.	.	.	.	.
.	.	.	.	.	16ff\JJ	.	.	.	.	.	.	.	.	.	.	.
=3	=3	=3	=3	=3	=3	=3	=3	=3	=3	=3	=3	=3	=3	=3	=3	=3
!	!	!	!	!	!	!	!	!	!	!	!	!	!	!	!LO:TX:t=P:problem=wężowate segno na kresce	!LO:TX:t=P:problem=wężowate segno na kresce
8E\	6 3	.	16e/LL	.	8gg\L	.	2r	.	.	2r	.	.	2ryy	2ryy	2r	2r
.	.	.	16cc/	.	.	.	.	.	.	.	.	.	.	.	.	.
8r	.	.	16g/	.	8gg\J	.	.	.	.	.	.	.	.	.	.	.
.	.	.	16cc/JJ	.	.	.	.	.	.	.	.	.	.	.	.	.
8F\	6 3	.	16f/LL	.	8aa\L	.	.	.	.	.	.	.	.	.	.	.
.	.	.	16dd/	.	.	.	.	.	.	.	.	.	.	.	.	.
8r	.	.	16a/	.	16bb\L	.	.	.	.	.	.	.	.	.	.	.
.	.	.	16dd/JJ	.	16ccc\JJ	.	.	.	.	.	.	.	.	.	.	.
=4	=4	=4	=4	=4	=4	=4	=4	=4||	=4||	=4	=4	=4	=4||	=4||	=4||	=4||
!	!	!	!	!	!	!	!	!	!	!	!	!	!	!	!LO:TX:t=P:problem=nadliczbowy takt w S i B	!LO:TX:t=P:problem=nadliczbowy takt w S i B
2ryy	.	.	2ryy	.	2ryy	.	2r	.	.	2r	.	.	2ryy	2ryy	2ryy	2ryy
=5	=5	=5	=5	=5	=5	=5	=5	=5	=5	=5||	=5||	=5||	=5	=5	=5	=5
!LO:TX:t=P:problem=mixed beam	!	!	!	!	!	!	!	!	!	!	!	!	!	!	!	!
8G\L	6 4	.	16g/LL	.	4ee\	.	4r	.	.	4r	.	.	2ryy	2ryy	4r	4r
.	.	.	16cc/	.	.	.	.	.	.	.	.	.	.	.	.	.
8G\	.	.	16b/	.	.	.	.	.	.	.	.	.	.	.	.	.
.	.	.	16cc/JJ	.	.	.	.	.	.	.	.	.	.	.	.	.
!	!	!	!	!	!	!	!	!	!	!	!	!	!	!	!LO:TX:b:i:t=3. Gloria:note=adnotacja ołówkiem	!
8GG/J	8 3	.	16b/LL	.	8dd\L	.	8r	.	.	8r	.	.	.	.	8r	8r
.	.	.	16a/	.	.	.	.	.	.	.	.	.	.	.	.	.
!LO:TX:t=P:problem=wężowate segno na kresce	!	!	!	!	!	!	!	!	!	!	!	!	!	!	!	!
!	!	!	!	!	!	!	!	!	!	!LO:TX:t=P:problem=linia tekstu z mszalnym "Gloria" wpisana ołówkiem	!	!	!	!	!	!
!	!	!	!	!	!	!	!LO:TX:t=P:problem=linia tekstu z mszalnym "Gloria" wpisana ołówkiem	!	!	!	!	!	!	!	!	!
8r	.	.	16g/	.	16gg\L	.	16G\LL	Lau-	Glo-	16gg\LL	Lau-	Glo-	.	.	16ee\LL	16gg\LL
!	!	!	!LO:TX:t=P:problem=wężowate segno na kresce	!	!LO:TX:t=P:problem=wężowate segno na kresce	!	!	!	!	!LO:TX:t=P:problem=wężowate segno na kresce	!	!	!	!	!	!
.	.	.	16f/JJ	.	16ff\JJ	.	32A\L	.	.	16ff\JJ	.	.	.	.	16dd\JJ	16ff\JJ
!	!	!	!	!	!	!	!LO:TX:t=P:problem=wężowate segno na kresce	!	!	!	!	!	!	!	!	!
.	.	.	.	.	.	.	32B\JJJ	.	.	.	.	.	.	.	.	.
=6||	=6||	=6||	=6||	=6||	=6||	=6||	=6||	=6||	=6||	=6||	=6||	=6||	=6||	=6||	=6||	=6||
*>B	*	*	*>B	*	*>B	*	*>B	*	*	*>B	*	*	*>B	*>B	*>B	*>B
!LO:TX:t=P:problem=mixed beam	!	!LO:DY:a:t=for	!	!	!	!LO:DY:a:t=for	!	!	!	!	!	!	!	!	!	!
8C/L	.	f	8e/L	.	8ee\L	f	8c\	-da-	-ri-	8ee\	-da-	-ri-	2ryy	2ryy	8cc\L	8ee\L
!	!	!	!	!LO:DY:b:t=for.	!	!	!	!	!	!	!	!	!	!	!	!
8c\	.	.	16cc/L 16e/	f	16ee\L	.	8c\	-te	-a	16ee\	-te	-a	.	.	16cc\L	16ee\L
.	.	.	16cc/JJ 16e/	.	16ee\JJ	.	.	.	.	16ee\	lau-	a	.	.	16cc\JJ	16ee\JJ
8B\	7	.	8b/L 8d/	.	8dd\L	.	8B\L	lau-	Glo-	8dd\	-da-	Glo-	.	.	8g/L	8dd\L
8G\J	.	.	16b/L 16d/	.	16dd\L	.	8G\J	.	.	16dd\	-te	.	.	.	16g/L	16dd\L
.	.	.	16b/JJ 16d/	.	16dd\JJ	.	.	.	.	16dd\	lau-	.	.	.	16g/JJ	16dd\JJ
=7	=7	=7	=7	=7	=7	=7	=7	=7	=7	=7	=7	=7	=7	=7	=7	=7
16c\LL	.	.	8cc/L 8e/	.	8cc\L	.	(16c\LL	-da-	-ri-	8cc\	-da-	-ri-	2ryy	2ryy	8e/L	8cc\L
16G\	.	.	.	.	.	.	16G\JJ)	.	.	.	.	.	.	.	.	.
16E\	.	.	16g/L	.	8cc\J	.	(16E\LL	.	.	8cc\	-te	-a	.	.	8e/J	8cc\J
16G\JJ	.	.	16e/JJ	.	.	.	16G\JJ)	.	.	.	.	.	.	.	.	.
!	!	!	!LO:TX:t=P:problem=mixed beam	!	!	!	!	!	!	!	!	!	!	!	!	!
8C/	.	.	8c/L	.	8r	.	8C/	-te	-a	8r	.	.	.	.	8r	8r
8r	.	.	16cc\L	.	16ee\LL	.	8r	.	.	16ee\LL	lau-	in	.	.	16cc\LL	16ee\LL
.	.	.	16dd\JJ	.	16ff\JJ	.	.	.	.	16ff\JJ	.	.	.	.	16dd\JJ	16ff\JJ
!	!	!	!	!	!LO:LB:g=original	!	!	!	!	!	!	!	!	!	!	!
!	!	!	!LO:LB:g=original	!	!	!	!	!	!	!	!	!	!	!	!	!
=8	=8	=8	=8	=8	=8	=8	=8	=8	=8	=8	=8	=8	=8	=8	=8	=8
8E\L	6 3	.	8ee\L	.	8gg\L	.	8E\	da-	in	8gg\	-da-	ex-	2ryy	2ryy	8ee\L	8gg\L
8E\	.	.	8ee\J	.	8gg\J	.	8E\	-te	ex-	8gg\	-te	.	.	.	8ee\J	8gg\J
8F\	6 3	.	8ee\L	.	8gg\L	.	8E\	pu-	-cel-	8gg\	pu-	-cel-	.	.	8ee\L	8gg\L
8F\J	.	.	16ff\L	.	16aa\L	.	16F\	-e-	.	16aa\	-e-	.	.	.	16ff\L	16aa\L
.	.	.	16dd\JJ	.	16ff\JJ	.	16D\	-ri	-sis	16ff\	-ri	-sis	.	.	16dd\JJ	16ff\JJ
=9	=9	=9	=9	=9	=9	=9	=9	=9	=9	=9	=9	=9	=9	=9	=9	=9
!LO:TX:t=P:problem=mixed beam	!	!	!	!	!	!	!	!	!	!	!	!	!	!	!	!
8G\L	6 4	.	8.cc\L	.	8.ee\L	.	8G\	Do-	De-	8.ee\	Do-	De-	2ryy	2ryy	4cc\	4ee\
8GG/	.	.	.	.	.	.	8GG/	-mi-	-o	.	.	.	.	.	.	.
.	.	.	16cc\Jk	.	16ee\Jk	.	.	.	.	16ee\	-mi-	-o	.	.	.	.
8G\J	5 3	.	8b\L	.	8dd\L	.	8G\	-nu(m)	.	8dd\	-nu(m)	o	.	.	8g\L	8dd\L
8r	.	.	16ee\L	.	16gg\L	.	16G\LL	Lau-	et	16gg\LL	lau-	et	.	.	16ee\L	16gg\L
.	.	.	16dd\JJ	.	16ff\JJ	.	32A\L	.	.	16ff\JJ	.	in	.	.	16dd\JJ	16ff\JJ
.	.	.	.	.	.	.	32B\JJJ	.	.	.	.	.	.	.	.	.
!	!	!	!	!	!	!	!	!	!	!LO:LB:g=original	!	!	!	!	!	!
!	!	!	!	!	!	!	!LO:LB:g=original	!	!	!	!	!	!	!	!	!
=10	=10	=10	=10	=10	=10	=10	=10	=10	=10	=10	=10	=10	=10	=10	=10	=10
!LO:TX:t=P:problem=mixed beam	!	!	!	!	!	!	!	!	!	!	!	!	!	!	!	!
8C/L	.	.	8cc/L 8e/	.	8ee\L	.	8c\	-da-	in	8ee\	-da-	ter-	2ryy	2ryy	8cc\L	8ee\L
8c\	.	.	16cc/L 16e/	.	16ee\L	.	8c\	-te	ter-	16ee\	-te	.	.	.	16cc\L	16ee\L
.	.	.	16cc/JJ 16e/	.	16ee\JJ	.	.	.	.	16ee\	lau-	-ra	.	.	16cc\JJ	16ee\JJ
8B\	.	.	8b/L 8d/	.	8dd\L	.	8B\L	lau-	-ra	8dd\	-da-	ter-	.	.	8g/L	8dd\L
8G\J	.	.	16b/L 16d/	.	16dd\L	.	8G\J	.	.	16dd\	-te	.	.	.	16g/L	16dd\L
.	.	.	16b/JJ 16d/	.	16dd\JJ	.	.	.	.	16dd\	lau-	-ra	.	.	16g/JJ	16dd\JJ
=11	=11	=11	=11	=11	=11	=11	=11	=11	=11	=11	=11	=11	=11	=11	=11	=11
16c\LL	.	.	8cc/L 8e/	.	8cc\L	.	(16c\LL	-da-	ter-	8cc\	-da-	pax	2ryy	2ryy	8e/L	8cc\L
16G\	.	.	.	.	.	.	16G\JJ)	.	.	.	.	.	.	.	.	.
16E\	.	.	16g/L	.	8cc\J	.	(16E\LL	.	.	8cc\	-te	.	.	.	8e/J	8cc\J
16G\JJ	.	.	16e/JJ	.	.	.	16G\JJ)	.	.	.	.	.	.	.	.	.
!	!	!	!LO:TX:t=P:problem=mixed beam	!	!	!	!	!	!	!	!	!	!	!	!	!
8C/	.	.	8c/L	.	8r	.	8C/	-te	-ra	8r	.	.	.	.	8r	8r
8r	.	.	16cc\L	.	16ee\LL	.	8r	.	.	16ee\LL	lau-	pax	.	.	16cc\LL	16ee\LL
.	.	.	16dd\JJ	.	16ff\JJ	.	.	.	.	16ff\JJ	.	.	.	.	16dd\JJ	16ff\JJ
!LO:LB:g=original	!	!	!	!	!	!	!	!	!	!	!	!	!	!	!	!
=12	=12	=12	=12	=12	=12	=12	=12	=12	=12	=12	=12	=12	=12	=12	=12	=12
8C/L	.	.	8ee\L	.	8gg\L	.	8C/	da-	pax	8gg\	-da-	ho-	2ryy	2ryy	8ee\L	8gg\L
8E\	.	.	8ee\	.	8ccc\	.	8E\	-te	ho-	8ccc\	-te	.	.	.	8cc\	8ee\J
!	!	!	!	!	!	!	!	!	!	!	!	!	!	!	!	!LO:LB:g=original
8F\	.	.	8ff\	.	8aa\	.	8F\	no-	-mi-	8aa\	no-	.	.	.	8dd\	8ff\L
8D\J	.	.	8dd\J	.	8ff\J	.	8D\	-men	.	8ff\	-men	.	.	.	8g\J	8dd\J
!	!	!	!	!	!	!	!	!	!	!	!	!	!	!	!LO:LB:g=original	!
=13	=13	=13	=13	=13	=13	=13	=13	=13	=13	=13	=13	=13	=13	=13	=13	=13
!LO:TX:t=P:problem=mixed beam	!	!	!	!	!	!	!	!	!	!	!	!	!	!	!	!
16GG/LL	.	.	16cc\LL	.	4ee\	.	4G\	Do-	-ni-	4ee\	Do-	-mi-	2ryy	2ryy	4e/	4cc\
16G\	.	.	16g\	.	.	.	.	.	.	.	.	.	.	.	.	.
16G\	.	.	16cc\	.	.	.	.	.	.	.	.	.	.	.	.	.
16G\JJ	.	.	16g\JJ	.	.	.	.	.	.	.	.	.	.	.	.	.
*tremolo	*	*	*	*	*	*	*	*	*	*	*	*	*	*	*	*
16G\LL	8 3	.	16b\LL	.	8.dd\L	.	4GG/	-mi-	.	8.dd\	.	.	.	.	4g/	4dd\
16G\	.	.	16g\	.	.	.	.	.	.	.	.	.	.	.	.	.
16G\	.	.	16b\	.	.	.	.	.	.	.	.	.	.	.	.	.
16G\JJ	.	.	16g\JJ	.	16dd\Jk	.	.	.	.	16dd\	-mi-	-ni-	.	.	.	.
*Xtremolo	*	*	*	*	*	*	*	*	*	*	*	*	*	*	*	*
=14	=14	=14	=14	=14	=14	=14	=14	=14	=14	=14	=14	=14	=14	=14	=14	=14
!	!	!	!LO:TX:t=P:problem=mixed beam	!	!	!	!	!	!	!	!	!	!	!	!	!
!	!	!LO:DY:b:t=p.	!	!	!	!	!	!	!	!	!	!	!	!	!	!
8C/	.	p	16cc\LL	.	4cc\	.	8C/	-ni	-bus	8cc\	-ni	-bus	2ryy	2ryy	4e/	4cc\
.	.	.	16e/	.	.	.	.	.	.	.	.	.	.	.	.	.
8r	.	.	16g/	.	.	.	8r	.	.	8r	.	.	.	.	.	.
.	.	.	16e/JJ	.	.	.	.	.	.	.	.	.	.	.	.	.
!	!	!	!	!	!	!	!	!	!	!LO:TX:b:i:t=Finis	!	!	!	!	!	!
8c\	.	.	8c/	.	16r	.	4r	.	.	4r	.	.	.	.	4r	4r
.	.	.	.	.	16gg\LL	.	.	.	.	.	.	.	.	.	.	.
8r	.	.	8r	.	16aa\	.	.	.	.	.	.	.	.	.	.	.
.	.	.	.	.	16gg\JJ	.	.	.	.	.	.	.	.	.	.	.
=15	=15	=15	=15	=15	=15	=15	=15||;	=15||	=15||	=15||;	=15||	=15||	=15	=15	=15	=15
8G\	.	.	16d/LL	.	8ff\L	.	2r	.	.	2r	.	.	2ryy	2ryy	8r	8r
.	.	.	16f/	.	.	.	.	.	.	.	.	.	.	.	.	.
8r	.	.	16g/	.	8b\	.	.	.	.	.	.	.	.	.	8dd\L	8ff\L
.	.	.	16f/JJ	.	.	.	.	.	.	.	.	.	.	.	.	.
*	*	*	*rep	*	*	*	*	*	*	*	*	*	*	*	*	*
8GG/	.	.	16d/LL	.	8b\	.	.	.	.	.	.	.	.	.	8dd\	8ff\
.	.	.	16f/	.	.	.	.	.	.	.	.	.	.	.	.	.
8r	.	.	16g/	.	8b\J	.	.	.	.	.	.	.	.	.	8dd\J	8ff\J
.	.	.	16f/JJ	.	.	.	.	.	.	.	.	.	.	.	.	.
*	*	*	*Xrep	*	*	*	*	*	*	*	*	*	*	*	*	*
=16	=16	=16	=16	=16	=16	=16	=16	=16	=16	=16	=16	=16	=16	=16	=16	=16
8C\	.	.	16e/LL	.	4cc\	.	2r	.	.	2r	.	.	2ryy	2ryy	4cc\	4ee\
.	.	.	16f/	.	.	.	.	.	.	.	.	.	.	.	.	.
8r	.	.	16g/	.	.	.	.	.	.	.	.	.	.	.	.	.
.	.	.	16e/JJ	.	.	.	.	.	.	.	.	.	.	.	.	.
8c\	.	.	8c/	.	16r	.	.	.	.	.	.	.	.	.	4r	4r
.	.	.	.	.	16gg\LL	.	.	.	.	.	.	.	.	.	.	.
8r	.	.	8r	.	16aa\	.	.	.	.	.	.	.	.	.	.	.
.	.	.	.	.	16gg\JJ	.	.	.	.	.	.	.	.	.	.	.
!	!	!	!LO:LB:g=original	!	!	!	!	!	!	!	!	!	!	!	!	!
=17	=17	=17	=17	=17	=17	=17	=17	=17	=17	=17	=17	=17	=17	=17	=17	=17
8G\	.	.	16d/LL	.	8ff\L	.	2r	.	.	2r	.	.	2ryy	2ryy	8r	8r
.	.	.	16f/	.	.	.	.	.	.	.	.	.	.	.	.	.
8r	.	.	16g/	.	8b\	.	.	.	.	.	.	.	.	.	8dd\L	8ff\L
.	.	.	16f/JJ	.	.	.	.	.	.	.	.	.	.	.	.	.
*	*	*	*rep	*	*	*	*	*	*	*	*	*	*	*	*	*
8GG/	.	.	16d/LL	.	8b\	.	.	.	.	.	.	.	.	.	8dd\	8ff\
.	.	.	16f/	.	.	.	.	.	.	.	.	.	.	.	.	.
8r	.	.	16g/	.	8b\J	.	.	.	.	.	.	.	.	.	8dd\J	8ff\J
.	.	.	16f/JJ	.	.	.	.	.	.	.	.	.	.	.	.	.
*	*	*	*Xrep	*	*	*	*	*	*	*	*	*	*	*	*	*
=18	=18	=18	=18	=18	=18	=18	=18	=18	=18	=18	=18	=18	=18	=18	=18	=18
!	!	!LO:DY:a:t=for	!	!	!	!	!	!	!	!	!	!	!	!	!	!
16C/LL	.	f	16e/LL	.	8cc/L	.	2r	.	.	2r	.	.	2ryy	2ryy	8cc\L	8ee\L
16E\	.	.	16f/	.	.	.	.	.	.	.	.	.	.	.	.	.
16G\	.	.	16g/	.	16g/L	.	.	.	.	.	.	.	.	.	8ee\	8gg\
16E\JJ	.	.	16e/JJ	.	16e/JJ	.	.	.	.	.	.	.	.	.	.	.
!	!	!	!	!	!LO:TX:a:i:t=finis	!	!	!	!	!	!	!	!	!	!	!
8C\	.	.	8c/	.	4c/	.	.	.	.	.	.	.	.	.	8cc\J	8ee\J
!	!	!	!LO:TX:a:i:t=Finis	!	!	!	!	!	!	!	!	!	!	!	!LO:TX:b:i:t=Finis	!LO:TX:b:i:t=finis
8r	.	.	8r	.	.	.	.	.	.	.	.	.	.	.	8r	8r
!	!	!	!	!	!LO:LB:g=original	!	!	!	!	!	!	!	!	!	!	!
=19||;	=19||;	=19||;	=19||;	=19||	=19||;	=19||	=19	=19	=19	=19	=19	=19	=19||	=19||	=19||;	=19||
*>C	*	*	*>C	*	*>C	*	*>C	*	*	*>C	*	*	*>C	*>C	*>C	*>C
!	!	!	!	!	!	!	!	!	!	!	!	!	!	!	!LO:TX:a:i:t=14	!
!	!	!	!	!	!	!LO:DY:a:t=p.	!	!	!	!	!	!	!	!	!	!
!	!	!LO:DY:b:t=pp&colon;	!	!	!	!	!	!	!	!	!	!	!	!	!	!
8C/	.	pp	2r	.	16cc\LL	p	2r	.	.	4ee\	Sit	Lau-	2ryy	2ryy	2r	2r
.	.	.	.	.	16g\	.	.	.	.	.	.	.	.	.	.	.
8r	.	.	.	.	16cc\	.	.	.	.	.	.	.	.	.	.	.
.	.	.	.	.	16g\JJ	.	.	.	.	.	.	.	.	.	.	.
8c\	.	.	.	.	16b\LL	.	.	.	.	8dd\	no-	-da-	.	.	.	.
.	.	.	.	.	16g\	.	.	.	.	.	.	.	.	.	.	.
8r	.	.	.	.	16cc\	.	.	.	.	8ee\	-men	-mus	.	.	.	.
.	.	.	.	.	16g\JJ	.	.	.	.	.	.	.	.	.	.	.
!	!	!	!	!	!	!	!	!	!	!LO:PB:g=original	!	!	!	!	!	!
=20	=20	=20	=20	=20	=20	=20	=20	=20	=20	=20	=20	=20	=20	=20	=20	=20
4G\	.	.	2r	.	16dd\LL	.	2r	.	.	8.ff\	Do-	da-	2ryy	2ryy	2r	2r
.	.	.	.	.	16g\	.	.	.	.	.	.	.	.	.	.	.
.	.	.	.	.	16cc\	.	.	.	.	.	.	.	.	.	.	.
.	.	.	.	.	16g\JJ	.	.	.	.	16ee\	-mi-	.	.	.	.	.
16GG/LL	.	.	.	.	16b\LL	.	.	.	.	4dd\	-ni	-mus	.	.	.	.
16BB/	.	.	.	.	16g\	.	.	.	.	.	.	.	.	.	.	.
16D/	.	.	.	.	16b\	.	.	.	.	.	.	.	.	.	.	.
16G/JJ	.	.	.	.	16g\JJ	.	.	.	.	.	.	.	.	.	.	.
=21	=21	=21	=21	=21	=21	=21	=21	=21	=21	=21	=21	=21	=21	=21	=21	=21
8GG/	.	.	2r	.	16dd\LL	.	2r	.	.	8ff\	Do-	be-	2ryy	2ryy	2r	2r
.	.	.	.	.	16g\	.	.	.	.	.	.	.	.	.	.	.
8r	.	.	.	.	16dd\	.	.	.	.	16ff\	-mi-	-ne-	.	.	.	.
.	.	.	.	.	16g\JJ	.	.	.	.	16ff\	-ni	.	.	.	.	.
8G\	.	.	.	.	16cc\LL	.	.	.	.	8ee\	be-	-di-	.	.	.	.
.	.	.	.	.	16g\	.	.	.	.	.	.	.	.	.	.	.
8r	.	.	.	.	16dd\	.	.	.	.	8ff\	-ne-	-ci-	.	.	.	.
.	.	.	.	.	16g\JJ	.	.	.	.	.	.	.	.	.	.	.
=22	=22	=22	=22	=22	=22	=22	=22	=22	=22	=22	=22	=22	=22	=22	=22	=22
8C/	.	.	2r	.	16ee\LL	.	2r	.	.	8.gg\L	-di-	.	2ryy	2ryy	2r	2r
.	.	.	.	.	16g\	.	.	.	.	.	.	.	.	.	.	.
8r	.	.	.	.	16dd\	.	.	.	.	.	.	.	.	.	.	.
.	.	.	.	.	16g\JJ	.	.	.	.	16ff\Jk	.	.	.	.	.	.
16C\LL	.	.	.	.	16cc\LL	.	.	.	.	4ee\	-ctum	-mus	.	.	.	.
16E\	.	.	.	.	16g\	.	.	.	.	.	.	.	.	.	.	.
16G\	.	.	.	.	16e\	.	.	.	.	.	.	.	.	.	.	.
16c\JJ	.	.	.	.	16g\JJ	.	.	.	.	.	.	.	.	.	.	.
!LO:LB:g=original	!	!	!	!	!	!	!	!	!	!	!	!	!	!	!	!
=23	=23	=23	=23	=23	=23	=23	=23	=23	=23	=23	=23	=23	=23	=23	=23	=23
!LO:TX:t=P:problem=mixed beam	!	!	!	!	!	!	!	!	!	!	!	!	!	!	!	!
8C/L	5 3	.	2r	.	16cc\LL	.	2r	.	.	4ee\	ex	te	2ryy	2ryy	2r	2r
.	.	.	.	.	16g\	.	.	.	.	.	.	.	.	.	.	.
8c\	.	.	.	.	16cc\	.	.	.	.	.	.	.	.	.	.	.
.	.	.	.	.	16g\JJ	.	.	.	.	.	.	.	.	.	.	.
8c\	.	.	.	.	16cc\LL	.	.	.	.	8ee\	hoc	a-	.	.	.	.
.	.	.	.	.	16g\	.	.	.	.	.	.	.	.	.	.	.
8c\J	.	.	.	.	16cc\	.	.	.	.	8ee\	nunc	-do-	.	.	.	.
.	.	.	.	.	16g\JJ	.	.	.	.	.	.	.	.	.	.	.
=24	=24	=24	=24	=24	=24	=24	=24	=24	=24	=24	=24	=24	=24	=24	=24	=24
!LO:TX:t=P:problem=mixed beam	!	!	!	!	!	!	!	!	!	!	!	!	!	!	!	!
8BB/L	6 3	.	2r	.	16b\LL	.	2r	.	.	4dd\	us-	-ra-	2ryy	2ryy	2r	2r
.	.	.	.	.	16g\	.	.	.	.	.	.	.	.	.	.	.
8B\	.	.	.	.	16b\	.	.	.	.	.	.	.	.	.	.	.
.	.	.	.	.	16g\JJ	.	.	.	.	.	.	.	.	.	.	.
8c\	3	.	.	.	8cc\L	.	.	.	.	8ee\	-que	.	.	.	.	.
8A\J	3	.	.	.	8a\J	.	.	.	.	8cc\	in	-mus	.	.	.	.
=25	=25	=25	=25	=25	=25	=25	=25	=25	=25	=25	=25	=25	=25	=25	=25	=25
!LO:TX:t=P:problem=mixed beam	!	!	!	!	!	!	!	!	!	!	!	!	!	!	!	!
8d\L	6 4	.	2r	.	16g/LL	.	2r	.	.	4b\	Se-	ra-	2ryy	2ryy	2r	2r
.	.	.	.	.	16d/	.	.	.	.	.	.	.	.	.	.	.
8d\	.	.	.	.	16g/	.	.	.	.	.	.	.	.	.	.	.
.	.	.	.	.	16d/JJ	.	.	.	.	.	.	.	.	.	.	.
8D/	5 #	.	.	.	16f#X/LL	.	.	.	.	8.a\	-cu-	.	.	.	.	.
.	.	.	.	.	16d/	.	.	.	.	.	.	.	.	.	.	.
8D/J	.	.	.	.	16f#/	.	.	.	.	.	.	.	.	.	.	.
.	.	.	.	.	16d/JJ	.	.	.	.	16a\	.	-mus	.	.	.	.
=26	=26	=26	=26	=26	=26	=26	=26	=26	=26	=26	=26	=26	=26	=26	=26	=26
16G\LL	8	.	2r	.	16g\LL	.	2r	.	.	4g\	-lum	te	2ryy	2ryy	2r	2r
16D\	.	.	.	.	16g\	.	.	.	.	.	.	.	.	.	.	.
16BB\	.	.	.	.	16b\	.	.	.	.	.	.	.	.	.	.	.
16D\JJ	.	.	.	.	16dd\JJ	.	.	.	.	.	.	.	.	.	.	.
8GG/	.	.	.	.	4gg\	.	.	.	.	8r	.	.	.	.	.	.
8r	.	.	.	.	.	.	.	.	.	16g\LL	a	a-	.	.	.	.
.	.	.	.	.	.	.	.	.	.	16a\JJ	.	-do-	.	.	.	.
!	!	!	!	!	!LO:LB:g=original	!	!	!	!	!	!	!	!	!	!	!
=27	=27	=27	=27	=27	=27	=27	=27	=27	=27	=27	=27	=27	=27	=27	=27	=27
8GG/	7n 5 3	.	2r	.	16f/LL	.	2r	.	.	8b\	So-	-ra-	2ryy	2ryy	2r	2r
.	.	.	.	.	16g/	.	.	.	.	.	.	.	.	.	.	.
8r	.	.	.	.	16f/	.	.	.	.	8b\	-lis	-mus	.	.	.	.
.	.	.	.	.	16g/JJ	.	.	.	.	.	.	.	.	.	.	.
!	!	!	!	!	!	!	!	!	!	!LO:LB:g=original	!	!	!	!	!	!
8G\	6 4	.	.	.	16e/LL	.	.	.	.	8cc\	or-	te	.	.	.	.
.	.	.	.	.	16g/	.	.	.	.	.	.	.	.	.	.	.
8r	.	.	.	.	16e/	.	.	.	.	8cc\	-tus	glo-	.	.	.	.
.	.	.	.	.	16g/JJ	.	.	.	.	.	.	.	.	.	.	.
=28	=28	=28	=28	=28	=28	=28	=28	=28	=28	=28	=28	=28	=28	=28	=28	=28
8GG/	5 3	.	2r	.	16b\LL	.	2r	.	.	8dd\	us-	-ri-	2ryy	2ryy	2r	2r
.	.	.	.	.	16g\	.	.	.	.	.	.	.	.	.	.	.
8r	.	.	.	.	16b\	.	.	.	.	8dd\	-que	-fi-	.	.	.	.
.	.	.	.	.	16g\JJ	.	.	.	.	.	.	.	.	.	.	.
8G\	6 4	.	.	.	16cc\LL	.	.	.	.	8ee\	a-	-ca-	.	.	.	.
.	.	.	.	.	16g\	.	.	.	.	.	.	.	.	.	.	.
8r	.	.	.	.	16cc\	.	.	.	.	8ee\	-do-	.	.	.	.	.
.	.	.	.	.	16g\JJ	.	.	.	.	.	.	.	.	.	.	.
=29	=29	=29	=29	=29	=29	=29	=29	=29	=29	=29	=29	=29	=29	=29	=29	=29
8B\L	5 3	.	2r	.	16dd\LL	.	2r	.	.	4ff\	-ca-	.	2ryy	2ryy	2r	2r
.	.	.	.	.	16g\	.	.	.	.	.	.	.	.	.	.	.
8G\	.	.	.	.	16b\	.	.	.	.	.	.	.	.	.	.	.
.	.	.	.	.	16g\JJ	.	.	.	.	.	.	.	.	.	.	.
8c\	3	.	.	.	16cc\LL	.	.	.	.	4ee\	-sum	-mus	.	.	.	.
.	.	.	.	.	16g\	.	.	.	.	.	.	.	.	.	.	.
8F#X\J	.	.	.	.	16e\	.	.	.	.	.	.	.	.	.	.	.
.	.	.	.	.	16c\JJ	.	.	.	.	.	.	.	.	.	.	.
=30	=30	=30	=30	=30	=30	=30	=30	=30	=30	=30	=30	=30	=30	=30	=30	=30
!LO:TX:t=P:problem=mixed beam	!	!	!	!	!LO:TX:t=P:problem=mixed beam	!	!	!	!	!	!	!	!	!	!	!
16G\LL	5 3	.	2r	.	16g/LL	.	2r	.	.	4dd\	.	te	2ryy	2ryy	2r	2r
16GG/	.	.	.	.	16gg\	.	.	.	.	.	.	.	.	.	.	.
16BB/	.	.	.	.	16ff#X\	.	.	.	.	.	.	.	.	.	.	.
16D/JJ	.	.	.	.	16gg\JJ	.	.	.	.	.	.	.	.	.	.	.
8G\	.	.	.	.	16aa\LL	.	.	.	.	8r	.	.	.	.	.	.
.	.	.	.	.	16gg\	.	.	.	.	.	.	.	.	.	.	.
8r	.	.	.	.	16ff#X\	.	.	.	.	16g\LL	lau-	te	.	.	.	.
.	.	.	.	.	16gg\JJ	.	.	.	.	16a\JJ	.	.	.	.	.	.
=31	=31	=31	=31	=31	=31	=31	=31	=31	=31	=31	=31	=31	=31	=31	=31	=31
8GG/	7n 5	.	2r	.	16fn/LL	.	2r	.	.	8b\	-da-	a-	2ryy	2ryy	2r	2r
.	.	.	.	.	16g/	.	.	.	.	.	.	.	.	.	.	.
8r	.	.	.	.	16f/	.	.	.	.	8b\	-bi-	-do-	.	.	.	.
.	.	.	.	.	16g/JJ	.	.	.	.	.	.	.	.	.	.	.
8G\	6 4	.	.	.	16e/LL	.	.	.	.	8cc\	-le	-ra-	.	.	.	.
.	.	.	.	.	16g/	.	.	.	.	.	.	.	.	.	.	.
8r	.	.	.	.	16e/	.	.	.	.	8cc\	lau-	-mus	.	.	.	.
.	.	.	.	.	16g/JJ	.	.	.	.	.	.	.	.	.	.	.
=32	=32	=32	=32	=32	=32	=32	=32	=32	=32	=32	=32	=32	=32	=32	=32	=32
8GG/	5 3	.	2r	.	16b\LL	.	2r	.	.	8dd\	-da-	te	2ryy	2ryy	2r	2r
.	.	.	.	.	16g\	.	.	.	.	.	.	.	.	.	.	.
8r	.	.	.	.	16b\	.	.	.	.	16dd\	-bi-	glo-	.	.	.	.
.	.	.	.	.	16g\JJ	.	.	.	.	16dd\	-le	.	.	.	.	.
8G\	6 4	.	.	.	16cc\LL	.	.	.	.	8ee\	no-	-ri-	.	.	.	.
.	.	.	.	.	16g\	.	.	.	.	.	.	.	.	.	.	.
8r	.	.	.	.	16cc\	.	.	.	.	8ee\	-men	-fi-	.	.	.	.
.	.	.	.	.	16g\JJ	.	.	.	.	.	.	.	.	.	.	.
=33	=33	=33	=33	=33	=33	=33	=33	=33	=33	=33	=33	=33	=33	=33	=33	=33
!	!	!	!	!	!	!	!	!	!	!	!	!	!	!	!LO:TX:t=P:problem=wężowate segno na kresce	!LO:TX:t=P:problem=wężowate segno na kresce
8B\L	5 3	.	2r	.	16dd\LL	.	2r	.	.	4ff\	Do-	-ca-	2ryy	2ryy	2r	2r
.	.	.	.	.	16g\	.	.	.	.	.	.	.	.	.	.	.
8G\	.	.	.	.	16b\	.	.	.	.	.	.	.	.	.	.	.
.	.	.	.	.	16g\JJ	.	.	.	.	.	.	.	.	.	.	.
8c\	3	.	.	.	16cc\LL	.	.	.	.	8.ee\	.	.	.	.	.	.
.	.	.	.	.	16g\	.	.	.	.	.	.	.	.	.	.	.
8F#X\J	.	.	.	.	16e\	.	.	.	.	.	.	.	.	.	.	.
.	.	.	.	.	16c\JJ	.	.	.	.	16ee\	-mi-	-mus	.	.	.	.
!LO:LB:g=original	!	!	!	!	!	!	!	!	!	!	!	!	!	!	!	!
=34	=34	=34	=34	=34	=34	=34	=34	=34	=34	=34	=34	=34	=34	=34	=34	=34
!LO:TX:t=P:problem=mixed beam	!	!	!LO:TX:t=P:problem=wężowate segno na kresce	!	!	!	!	!	!	!	!	!	!	!	!	!
16G\LL	5 3	.	2r	.	8g/L	.	4r	.	.	4dd\	-ni	te	2ryy	2ryy	2ryy	2ryy
16GG/	.	.	.	.	.	.	.	.	.	.	.	.	.	.	.	.
16BB/	.	.	.	.	16b/L	.	.	.	.	.	.	.	.	.	.	.
16D/JJ	.	.	.	.	16dd/JJ	.	.	.	.	.	.	.	.	.	.	.
8G\	.	.	.	.	8gg\L	.	8r	.	.	8r	.	.	.	.	.	.
!LO:TX:t=P:problem=wężowate segno na kresce	!	!	!	!	!	!	!	!	!	!	!	!	!	!	!	!
8r	.	.	.	.	16gg\L	.	16G\LL	Lau	.	16gg\LL	Lau	Glo	.	.	.	.
!	!	!	!	!	!LO:TX:t=P:problem=wężowate segno na kresce	!	!	!	!	!LO:TX:t=P:problem=wężowate segno na kresce	!	!	!	!	!	!
.	.	.	.	.	16ff\JJ	.	32A\L	.	.	16ff\JJ	.	.	.	.	.	.
!	!	!	!	!	!	!	!LO:TX:t=P:problem=wężowate segno na kresce	!	!	!	!	!	!	!	!	!
.	.	.	.	.	.	.	32B\JJJ	.	.	.	.	.	.	.	.	.
!	!	!	!	!	!	!	!	!	!	!LO:PB:g=original	!	!	!	!	!	!
!	!	!	!	!	!LO:LB:g=original	!	!	!	!	!	!	!	!	!	!	!
=35||	=35||	=35||	=35||	=35||	=35||	=35||	=35||	=35||	=35||	=35||	=35||	=35||	=35||	=35||	=35||	=35||
*>D	*	*	*>D	*	*>D	*	*>D	*	*	*>D	*	*	*>D	*>D	*>D	*>D
!	!	!	!	!	!	!	!	!	!	!	!	!	!	!	!LO:TX:a:i:t=14	!
!	!	!	!	!	!	!LO:DY:b:t=p.	!	!	!	!	!	!	!	!	!	!
!	!	!LO:DY:b:t=pp&colon;	!	!	!	!	!	!	!	!	!	!	!	!	!	!
4c\|	.	pp	2r	.	4cc\	p	4c\	Ex-	Gra-	2r	.	.	2ryy	2ryy	2r	2r
!LO:TX:t=P:problem=mixed beam	!	!	!	!	!	!	!	!	!	!	!	!	!	!	!	!
!	!	!	!	!	!LO:TX:t=P:problem=mixed beam	!	!	!	!	!	!	!	!	!	!	!
8C/|L	.	.	.	.	8c/L	.	8C/	-cel-	-ti-	.	.	.	.	.	.	.
8c\|J	.	.	.	.	8cc\J	.	8c\	-sus	-as	.	.	.	.	.	.	.
!	!	!	!	!	!	!	!LO:LB:g=original	!	!	!	!	!	!	!	!	!
=36	=36	=36	=36	=36	=36	=36	=36	=36	=36	=36	=36	=36	=36	=36	=36	=36
8B\|L	.	.	2r	.	8b\L	.	8B\	Su-	a-	2r	.	.	2ryy	2ryy	2r	2r
8A\|	.	.	.	.	8a/	.	8A\	-per	.	.	.	.	.	.	.	.
8G\|	.	.	.	.	8g/	.	8G\	o-	-gi-	.	.	.	.	.	.	.
8F\|J	.	.	.	.	8e/J	.	8E\	-mnes	-mus	.	.	.	.	.	.	.
=37	=37	=37	=37	=37	=37	=37	=37	=37	=37	=37	=37	=37	=37	=37	=37	=37
8F\|L	.	.	2r	.	8f/L	.	8F\	gen-	ti-	2r	.	.	2ryy	2ryy	2r	2r
8D\|J	.	.	.	.	8d/	.	8D\	-tes	.	.	.	.	.	.	.	.
!LO:TX:t=P:problem=mixed beam	!	!	!	!	!	!	!	!	!	!	!	!	!	!	!	!
8G\|L	.	.	.	.	8g/	.	8.G\	Do-	.	.	.	.	.	.	.	.
8GG/|J	.	.	.	.	8b/J 8d/	.	.	.	.	.	.	.	.	.	.	.
.	.	.	.	.	.	.	16G\	-mi-	.	.	.	.	.	.	.	.
=38	=38	=38	=38	=38	=38	=38	=38	=38	=38	=38	=38	=38	=38	=38	=38	=38
!LO:TX:t=P:problem=mixed beam	!	!	!	!	!	!	!	!	!	!	!	!	!	!	!	!
16C/|LL	.	.	2r	.	16cc/LL 16e/	.	4C/	-nus	-bi	2r	.	.	2ryy	2ryy	2r	2r
16c\|	.	.	.	.	16cc\	.	.	.	.	.	.	.	.	.	.	.
16G\|	.	.	.	.	16g/	.	.	.	.	.	.	.	.	.	.	.
16E\|JJ	.	.	.	.	16e/JJ	.	.	.	.	.	.	.	.	.	.	.
8C/	.	.	.	.	4c/	.	4r	.	.	.	.	.	.	.	.	.
8r	.	.	.	.	.	.	.	.	.	.	.	.	.	.	.	.
=39	=39	=39	=39	=39	=39	=39	=39	=39	=39	=39	=39	=39	=39	=39	=39	=39
8C/	.	.	2r	.	4cc/ 4e/	.	8C\L	et	pro-	2r	.	.	2ryy	2ryy	2r	2r
8r	.	.	.	.	.	.	8E\J	.	.	.	.	.	.	.	.	.
8c\	3	.	.	.	4r	.	8G\	su-	-pter	.	.	.	.	.	.	.
8r	.	.	.	.	.	.	8c\	-per	.	.	.	.	.	.	.	.
=40	=40	=40	=40	=40	=40	=40	=40	=40	=40	=40	=40	=40	=40	=40	=40	=40
8B\	3	.	2r	.	8r	.	8.d\L	Ce-	ma-	2r	.	.	2ryy	2ryy	2r	2r
8r	.	.	.	.	8b/L 8d/	.	.	.	.	.	.	.	.	.	.	.
.	.	.	.	.	.	.	16B\Jk	.	.	.	.	.	.	.	.	.
8G\L	3	.	.	.	8b/ 8d/	.	8G\	-los	-gnam	.	.	.	.	.	.	.
8B\J	3	.	.	.	8b/J 8d/	.	8d\	glo-	.	.	.	.	.	.	.	.
=41	=41	=41	=41	=41	=41	=41	=41	=41	=41	=41	=41	=41	=41	=41	=41	=41
!LO:TX:t=P:problem=mixed beam	!	!	!	!	!	!	!	!	!	!	!	!	!	!	!	!
8c\L	3	.	2r	.	8cc\L	.	8c\	-ri-	glo-	2r	.	.	2ryy	2ryy	2r	2r
8A\	.	.	.	.	8aa\	.	8A\	-a	-ri-	.	.	.	.	.	.	.
!	!	!	!	!	!	!	!LO:TX:t=P:problem=mixed beam	!	!	!	!	!	!	!	!	!
8d\	#	.	.	.	8gg\	.	8d\L	e-	-am	.	.	.	.	.	.	.
8D/J	.	.	.	.	8ff#X\J	.	8D/J	.	tu-	.	.	.	.	.	.	.
=42	=42	=42	=42	=42	=42	=42	=42	=42	=42	=42	=42	=42	=42	=42	=42	=42
16G\LL	8	.	2r	.	16gg\LL	.	4G\	-ius	-am	2r	.	.	2ryy	2ryy	2r	2r
16G\	.	.	.	.	16gg\	.	.	.	.	.	.	.	.	.	.	.
16D\	.	.	.	.	16dd\	.	.	.	.	.	.	.	.	.	.	.
16BB\JJ	.	.	.	.	16b\JJ	.	.	.	.	.	.	.	.	.	.	.
8GG/	.	.	.	.	4g/	.	4r	.	.	.	.	.	.	.	.	.
8r	.	.	.	.	.	.	.	.	.	.	.	.	.	.	.	.
=43	=43	=43	=43	=43	=43	=43	=43	=43	=43	=43	=43	=43	=43	=43	=43	=43
8G\	.	.	2r	.	8g/L	.	8G\	Qui	glo-	2r	.	.	2ryy	2ryy	2r	2r
8r	.	.	.	.	16g/L	.	16G\	si-	-ri-	.	.	.	.	.	.	.
.	.	.	.	.	16g/JJ	.	16G\	-cut	-am	.	.	.	.	.	.	.
*	*	*	*	*	*	*	*	*	*ij	*	*	*	*	*	*	*
!	!	!	!	!	!	!	!LO:LB:g=original	!	!	!	!	!	!	!	!	!
8F#X\	3	.	.	.	8f#X/L	.	8A\	Do-	glo-	.	.	.	.	.	.	.
8r	.	.	.	.	16f#/L	.	16A\	-mi-	-ri-	.	.	.	.	.	.	.
.	.	.	.	.	16f#/JJ	.	16A\	-nus	-am	.	.	.	.	.	.	.
*	*	*	*	*	*	*	*	*	*Xij	*	*	*	*	*	*	*
!LO:LB:g=original	!	!	!	!	!	!	!	!	!	!	!	!	!	!	!	!
=44	=44	=44	=44	=44	=44	=44	=44	=44	=44	=44	=44	=44	=44	=44	=44	=44
8Fn\	4 2	.	2r	.	8fn/L	.	8B\	De-	glo-	2r	.	.	2ryy	2ryy	2r	2r
8r	.	.	.	.	8f/	.	8B\	-us	.	.	.	.	.	.	.	.
8E\	5 3	.	.	.	8e/	.	8c\	no-	-ri-	.	.	.	.	.	.	.
8r	.	.	.	.	8e/J	.	8c\	-ster	-am	.	.	.	.	.	.	.
=45	=45	=45	=45	=45	=45	=45	=45	=45	=45	=45	=45	=45	=45	=45	=45	=45
8.B\L	5 3	.	2r	.	16g/LL	.	8.d\	Qui	tu-	2r	.	.	2ryy	2ryy	2r	2r
.	.	.	.	.	16b/	.	.	.	.	.	.	.	.	.	.	.
.	.	.	.	.	16dd/	.	.	.	.	.	.	.	.	.	.	.
16G\Jk	.	.	.	.	16b/JJ	.	16B\	in	.	.	.	.	.	.	.	.
16c\LL	3	.	.	.	16cc/LL	.	16c\LL	al-	.	.	.	.	.	.	.	.
16G\	.	.	.	.	16g/	.	16G\JJ	.	.	.	.	.	.	.	.	.
16E\	.	.	.	.	16e/	.	16E\LL	-tis	.	.	.	.	.	.	.	.
16C\JJ	.	.	.	.	16c/JJ	.	16C\JJ	.	.	.	.	.	.	.	.	.
!	!	!	!	!	!LO:LB:g=original	!	!	!	!	!	!	!	!	!	!	!
=46	=46	=46	=46	=46	=46	=46	=46	=46	=46	=46	=46	=46	=46	=46	=46	=46
!LO:TX:t=P:problem=mixed beam	!	!	!	!	!	!	!	!	!	!	!	!	!	!	!	!
16G\LL	5 3	.	2r	.	16g/LL	.	8.G\	ha-	.	2r	.	.	2ryy	2ryy	2r	2r
16GG/	.	.	.	.	32a/L	.	.	.	.	.	.	.	.	.	.	.
.	.	.	.	.	32b\JJJ	.	.	.	.	.	.	.	.	.	.	.
16BB/	.	.	.	.	32cc\LLL	.	.	.	.	.	.	.	.	.	.	.
.	.	.	.	.	32dd\	.	.	.	.	.	.	.	.	.	.	.
16D/JJ	.	.	.	.	32ee\	.	16GG/	-bi-	.	.	.	.	.	.	.	.
.	.	.	.	.	32ff\JJJ	.	.	.	.	.	.	.	.	.	.	.
8G\	.	.	.	.	8gg\	.	8GG/	-tat	-am	.	.	.	.	.	.	.
8r	.	.	.	.	8r	.	8r	.	.	.	.	.	.	.	.	.
=47	=47	=47	=47	=47	=47	=47	=47	=47	=47	=47	=47	=47	=47	=47	=47	=47
8G\	.	.	2r	.	8g/L	.	8.G\	et	glo-	2r	.	.	2ryy	2ryy	2r	2r
8r	.	.	.	.	16g/L	.	.	.	.	.	.	.	.	.	.	.
.	.	.	.	.	16g/JJ	.	16G\	hu-	.	.	.	.	.	.	.	.
8F#X\	3	.	.	.	8f#X/L	.	8A\	-mi-	-ri-	.	.	.	.	.	.	.
8r	.	.	.	.	16f#/L	.	16A\	-li-	-am	.	.	.	.	.	.	.
.	.	.	.	.	16f#/JJ	.	16A\	-a	.	.	.	.	.	.	.	.
=48	=48	=48	=48	=48	=48	=48	=48	=48	=48	=48	=48	=48	=48	=48	=48	=48
8Fn\	4 2	.	2r	.	8fn/L	.	8.B\	re-	glo-	2r	.	.	2ryy	2ryy	2r	2r
8r	.	.	.	.	8f/	.	.	.	.	.	.	.	.	.	.	.
.	.	.	.	.	.	.	16B\	-spi-	.	.	.	.	.	.	.	.
!	!	!	!	!	!	!	!LO:LB:g=original	!	!	!	!	!	!	!	!	!
8E\	6 3	.	.	.	8e/	.	8c\	-cit	-ri-	.	.	.	.	.	.	.
8r	.	.	.	.	8e/J	.	8c\	in	-am	.	.	.	.	.	.	.
=49	=49	=49	=49	=49	=49	=49	=49	=49	=49	=49	=49	=49	=49	=49	=49	=49
!	!	!	!	!	!	!	!	!	!	!	!	!	!	!	!LO:TX:t=P:problem=wężowate segno na kresce	!LO:TX:t=P:problem=wężowate segno na kresce
!	!	!	!	!	!	!	!	!	!	!LO:TX:t=P:problem=wężowate segno na kresce	!	!	!	!	!	!
8B\L	5 3	.	2r	.	16g/LL	.	8.d\	Ce-	tu-	2r	.	.	2ryy	2ryy	2r	2r
.	.	.	.	.	16b/	.	.	.	.	.	.	.	.	.	.	.
8G\J	.	.	.	.	16dd/	.	.	.	.	.	.	.	.	.	.	.
.	.	.	.	.	16b/JJ	.	16B\	-lo	.	.	.	.	.	.	.	.
16c\LL	3	.	.	.	16cc/LL	.	16c\LL	et	.	.	.	.	.	.	.	.
16G\	.	.	.	.	16g/	.	16G\JJ	.	.	.	.	.	.	.	.	.
16E\	.	.	.	.	16e/	.	16E\LL	in	.	.	.	.	.	.	.	.
16C\JJ	.	.	.	.	16c/JJ	.	16C\JJ	.	.	.	.	.	.	.	.	.
=50	=50	=50	=50	=50	=50	=50	=50	=50	=50	=50	=50	=50	=50	=50	=50	=50
!LO:TX:t=P:problem=mixed beam	!	!	!LO:TX:t=P:problem=wężowate segno na kresce	!	!	!	!	!	!	!	!	!	!	!	!	!
16G\LL	.	.	2r	.	8g/L	.	8G\	ter-	-am	2ryy	.	.	2ryy	2ryy	2ryy	2ryy
16GG/	.	.	.	.	.	.	.	.	.	.	.	.	.	.	.	.
16BB/	.	.	.	.	8G/J	.	8GG/	-ra	.	.	.	.	.	.	.	.
16D/JJ	.	.	.	.	.	.	.	.	.	.	.	.	.	.	.	.
!	!	!	!	!	!LO:TX:t=P:problem=mixed beam	!	!	!	!	!	!	!	!	!	!	!
8G\	.	.	.	.	8G/L	.	8r	.	.	.	.	.	.	.	.	.
!LO:TX:t=P:problem=wężowate segno na kresce	!	!	!	!	!	!	!	!	!	!	!	!	!	!	!	!
8r	.	.	.	.	16gg\L	.	16G\LL	Lau	Glo	.	.	.	.	.	.	.
!	!	!	!	!	!LO:TX:t=P:problem=wężowate segno na kresce	!	!	!	!	!	!	!	!	!	!	!
.	.	.	.	.	16ff\JJ	.	32A\L	.	.	.	.	.	.	.	.	.
!	!	!	!	!	!	!	!LO:TX:t=P:problem=wężowate segno na kresce	!	!	!	!	!	!	!	!	!
.	.	.	.	.	.	.	32B\JJJ	.	.	.	.	.	.	.	.	.
=51||	=51||	=51||	=51||	=51||	=51||	=51||	=51||	=51||	=51||	=51||	=51||	=51||	=51||	=51||	=51||	=51||
*>E	*	*	*>E	*	*>E	*	*>E	*	*	*>E	*	*	*>E	*>E	*>E	*>E
4A\	5 3	.	2r	.	8.ee\L	.	8.c\	Sus-	Do-	8.ee\	Su-	Do-	2ryy	2ryy	2r	2r
.	.	.	.	.	16dd\Jk	.	16B\	-ci-	.	16dd\	-sci-	.	.	.	.	.
4r	.	.	.	.	8cc\L	.	8A\	-tans	-mi-	8cc\	-tans	-mi-	.	.	.	.
.	.	.	.	.	8cc\J	.	8A\	a	-ne	8cc\	a	-ne	.	.	.	.
=52	=52	=52	=52	=52	=52	=52	=52	=52	=52	=52	=52	=52	=52	=52	=52	=52
4E\	7 5	.	2r	.	8b\L	.	8G#X\	ter-	De-	8b\	ter-	De-	2ryy	2ryy	2r	2r
.	.	.	.	.	8cc\	.	8A\	-ra	.	8cc\	-ra	.	.	.	.	.
8G#X\L	.	.	.	.	8dd\	.	8B\	in-	.	8dd\	in-	.	.	.	.	.
8E\J	.	.	.	.	8b\J	.	8G#X	-o-	.	8b\	-o-	.	.	.	.	.
=53	=53	=53	=53	=53	=53	=53	=53	=53	=53	=53	=53	=53	=53	=53	=53	=53
16A\LL	3	.	2r	.	16cc\LL	.	8A\	-pem	-us	8cc\	-pem	-us	2ryy	2ryy	2r	2r
16A\	.	.	.	.	16a\	.	.	.	.	.	.	.	.	.	.	.
16E\	.	.	.	.	16cc\	.	8r	.	.	8r	.	.	.	.	.	.
16C\JJ	.	.	.	.	16ee\JJ	.	.	.	.	.	.	.	.	.	.	.
8AA/	.	.	.	.	4aa\	.	4r	.	.	4r	.	.	.	.	.	.
8r	.	.	.	.	.	.	.	.	.	.	.	.	.	.	.	.
!LO:LB:g=original	!	!	!	!	!	!	!	!	!	!	!	!	!	!	!	!
=54	=54	=54	=54	=54	=54	=54	=54	=54	=54	=54	=54	=54	=54	=54	=54	=54
!	!	!	!	!	!	!	!LO:LB:g=original	!	!	!	!	!	!	!	!	!
4G\	5 3	.	2r	.	8.dd\L	.	8.B\	et	A-	8.dd\	et	A-	2ryy	2ryy	2r	2r
.	.	.	.	.	16cc\Jk	.	16A\	de	.	16cc\	de	.	.	.	.	.
4r	.	.	.	.	8b\L	.	8G\	ster-	-gnus	8b\	ster-	-gnus	.	.	.	.
.	.	.	.	.	8b\J	.	16G\	-co-	.	16b\	-co-	.	.	.	.	.
.	.	.	.	.	.	.	16G\	-re	.	16b\	-re	.	.	.	.	.
!	!	!	!	!	!LO:LB:g=original	!	!	!	!	!	!	!	!	!	!	!
=55	=55	=55	=55	=55	=55	=55	=55	=55	=55	=55	=55	=55	=55	=55	=55	=55
4D\	7 5	.	2r	.	8a\L	.	8F#X\	e-	De-	8a\	e-	De-	2ryy	2ryy	2r	2r
.	.	.	.	.	8b\	.	16G\	-ri-	.	16b\	-ri-	.	.	.	.	.
.	.	.	.	.	.	.	16G\	-gens	.	16b\	-gens	.	.	.	.	.
8F#X\L	.	.	.	.	8cc\	.	8A\	pau-	.	8cc\	pau-	.	.	.	.	.
8D\J	.	.	.	.	8a\J	.	8F#X\	-pe-	.	8a\	-pe-	.	.	.	.	.
=56	=56	=56	=56	=56	=56	=56	=56	=56	=56	=56	=56	=56	=56	=56	=56	=56
16G\LL	3	.	2r	.	16b\LL	.	8G\	-rem	-i	8b\	-rem	-i	2ryy	2ryy	2r	2r
16G\	.	.	.	.	16g	.	.	.	.	.	.	.	.	.	.	.
16D\	.	.	.	.	16b\	.	8r	.	.	8r	.	.	.	.	.	.
16BB\JJ	.	.	.	.	16dd\JJ	.	.	.	.	.	.	.	.	.	.	.
8GG/	.	.	.	.	8gg\	.	4r	.	.	4r	.	.	.	.	.	.
8r	.	.	.	.	8r	.	.	.	.	.	.	.	.	.	.	.
!	!	!	!	!	!	!	!	!	!	!LO:LB:g=original	!	!	!	!	!	!
=57	=57	=57	=57	=57	=57	=57	=57	=57	=57	=57	=57	=57	=57	=57	=57	=57
4G\	.	.	2r	.	4g/	.	16G\	ut	fi-	16g\	ut	fi-	2ryy	2ryy	2r	2r
.	.	.	.	.	.	.	16F#X\	col-	.	16a\	col-	.	.	.	.	.
.	.	.	.	.	.	.	16G\	-le-	.	16b\	-le-	.	.	.	.	.
.	.	.	.	.	.	.	16A\	-cet	-li-	16cc\	-cet	-li-	.	.	.	.
8r	.	.	.	.	4r	.	16B\	e-	.	16dd\	e-	-us	.	.	.	.
.	.	.	.	.	.	.	16c\	-um	.	16ee\	-um	.	.	.	.	.
16B\LL	.	.	.	.	.	.	16d\	Com	-us	16ff\	cu(m)	.	.	.	.	.
16G\JJ	.	.	.	.	.	.	16B\	prin-	.	16dd\	prin-	.	.	.	.	.
=58	=58	=58	=58	=58	=58	=58	=58	=58	=58	=58	=58	=58	=58	=58	=58	=58
8c\	.	.	2r	.	4r	.	16B\	-ci-	Pa-	16dd\	-ci-	Pa-	2ryy	2ryy	2r	2r
.	.	.	.	.	.	.	16c\	-pi-	.	16ee\	-pi-	.	.	.	.	.
8r	.	.	.	.	.	.	8c\	-bus	-tris	8ee\	-bus	-tris	.	.	.	.
16c\LL	.	.	.	.	32cc\LLL	.	4r	.	.	4r	.	.	.	.	.	.
.	.	.	.	.	32dd\	.	.	.	.	.	.	.	.	.	.	.
16G\	.	.	.	.	32ee\	.	.	.	.	.	.	.	.	.	.	.
.	.	.	.	.	32ff\JJJ	.	.	.	.	.	.	.	.	.	.	.
16E\	.	.	.	.	32gg\LLL	.	.	.	.	.	.	.	.	.	.	.
.	.	.	.	.	32aa\	.	.	.	.	.	.	.	.	.	.	.
16C\JJ	.	.	.	.	32bb\	.	.	.	.	.	.	.	.	.	.	.
.	.	.	.	.	32ccc\JJJ	.	.	.	.	.	.	.	.	.	.	.
=59	=59	=59	=59	=59	=59	=59	=59	=59	=59	=59	=59	=59	=59	=59	=59	=59
!	!	!	!	!	!	!	!LO:LB:g=original	!	!	!	!	!	!	!	!	!
4G\	.	.	2r	.	4gg\	.	16d\	Cum	A-	16ff\	cum	A-	2ryy	2ryy	2r	2r
.	.	.	.	.	.	.	16c\	prin-	.	16ee\	prin-	.	.	.	.	.
.	.	.	.	.	.	.	16B\	-ci-	-gnus	16dd\	-ci-	-gnus	.	.	.	.
.	.	.	.	.	.	.	16A\	-pi-	.	16cc\	-pu-	.	.	.	.	.
8r	.	.	.	.	4r	.	16G\	-bus	.	16b\	-bus	De-	.	.	.	.
.	.	.	.	.	.	.	16F\	po-	De-	16a\	po-	.	.	.	.	.
16B\LL	.	.	.	.	.	.	16E\	-pu-	.	16g\	-pu-	.	.	.	.	.
16G\JJ	.	.	.	.	.	.	16D\	-li	.	16f\	-li	.	.	.	.	.
=60	=60	=60	=60	=60	=60	=60	=60	=60	=60	=60	=60	=60	=60	=60	=60	=60
!LO:TX:t=P:problem=mixed beam	!	!	!	!	!	!	!	!	!	!	!	!	!	!	!	!
16c\LL	.	.	2r	.	4r	.	8D/	su-	.	8f/	su-	.	2ryy	2ryy	2r	2r
16C/	.	.	.	.	.	.	.	.	.	.	.	.	.	.	.	.
16E/	.	.	.	.	.	.	8C/	-i	-i	8e/	-i	-i	.	.	.	.
16G/JJ	.	.	.	.	.	.	.	.	.	.	.	.	.	.	.	.
8c\	.	.	.	.	16cc\LL	.	4r	.	.	4r	.	.	.	.	.	.
.	.	.	.	.	16b\	.	.	.	.	.	.	.	.	.	.	.
8r	.	.	.	.	16cc\	.	.	.	.	.	.	.	.	.	.	.
.	.	.	.	.	16dd\JJ	.	.	.	.	.	.	.	.	.	.	.
=61	=61	=61	=61	=61	=61	=61	=61	=61	=61	=61	=61	=61	=61	=61	=61	=61
4C/	8 3	.	2r	.	4ee\	.	4C/	Qui	Fi-	4ee\	Qui	fi-	2ryy	2ryy	2r	2r
4D/	6 3	.	.	.	16ff\LL	.	8D/	ha-	.	16ff\LL	ha-	.	.	.	.	.
.	.	.	.	.	16dd\	.	.	.	.	16dd\JJ	.	.	.	.	.	.
.	.	.	.	.	16cc\	.	8D/	-bi-	.	16cc\LL	-bi-	.	.	.	.	.
.	.	.	.	.	16b\JJ	.	.	.	.	16b\JJ	.	.	.	.	.	.
!	!	!	!	!	!	!	!	!	!	!LO:LB:g=original	!	!	!	!	!	!
=62	=62	=62	=62	=62	=62	=62	=62	=62	=62	=62	=62	=62	=62	=62	=62	=62
4E\	6 3	.	2r	.	8cc\L	.	4.E\	-ta-	-li-	(8cc\L	-ta-	.	2ryy	2ryy	2r	2r
.	.	.	.	.	8ee\	.	.	.	.	8ee\J)	.	.	.	.	.	.
8r	.	.	.	.	8gg\	.	.	.	.	8gg\L	-re	-li-	.	.	.	.
8E\	3	.	.	.	8bb-X\J	.	8G\	-re	-us	8bb-X\J	.	-us	.	.	.	.
=63	=63	=63	=63	=63	=63	=63	=63	=63	=63	=63	=63	=63	=63	=63	=63	=63
8F\L	3	.	2r	.	8aa\L	.	8F\	fa-	Pa-	8aa\	fa-	Pa-	2ryy	2ryy	2r	2r
8C#X\	3	.	.	.	8ee\	.	8C#X/	-cit	.	8ee\	-cit	.	.	.	.	.
8D\	3	.	.	.	8ff\	.	8D/	ste-	.	8ff\	ste-	.	.	.	.	.
8E\J	3	.	.	.	8cc#X\J	.	8E/	-ri-	.	8cc#X\	-ri-	.	.	.	.	.
=64	=64	=64	=64	=64	=64	=64	=64	=64	=64	=64	=64	=64	=64	=64	=64	=64
8F\L	3	.	2r	.	8dd\L	.	8F/	-lem	.	8dd\	-lem	.	2ryy	2ryy	2r	2r
8C#X\	3	.	.	.	8ee\	.	8C#X/	in	.	8ee\	in	.	.	.	.	.
!	!	!	!	!	!	!	!LO:LB:g=original	!	!	!	!	!	!	!	!	!
8D\	3	.	.	.	8ff\	.	8D/	do-	.	8ff\	do-	.	.	.	.	.
8F\J	3	.	.	.	8aa\J	.	8F/	-mo	.	8aa\	-mo	.	.	.	.	.
!LO:LB:g=original	!	!	!	!	!LO:LB:g=original	!	!	!	!	!	!	!	!	!	!	!
=65	=65	=65	=65	=65	=65	=65	=65	=65	=65	=65	=65	=65	=65	=65	=65	=65
8E\L	3	.	2r	.	8gg\L	.	8E/	ma-	.	8gg\	Ma-	.	2ryy	2ryy	2r	2r
8BB\	3	.	.	.	8dd\	.	8BB/	-trem	.	8dd\	-trem	.	.	.	.	.
8C\	3	.	.	.	8ee\	.	8C/	fi-	.	8ee\	fi-	.	.	.	.	.
8D\J	3	.	.	.	8b\J	.	8D/	-li-	-tris	8b\	-li-	-tris	.	.	.	.
=66	=66	=66	=66	=66	=66	=66	=66	=66	=66	=66	=66	=66	=66	=66	=66	=66
8E\L	3	.	2r	.	8cc\L	.	8E/	-o-	Fi-	8cc\L	-o-	Fi-	2ryy	2ryy	2r	2r
8BB\	3	.	.	.	8dd\	.	8BB/	-rum	.	8dd\J	.	.	.	.	.	.
8C\	3	.	.	.	8ee\	.	8C/	le-	.	8ee\	-rem	.	.	.	.	.
8E\J	3	.	.	.	8gg\J	.	8E/	-tan-	.	8gg\	le-	.	.	.	.	.
=67	=67	=67	=67	=67	=67	=67	=67	=67	=67	=67	=67	=67	=67	=67	=67	=67
8G\L	7 5	.	2r	.	16ff\LL	.	8G\L	.	.	(4ff\	-ta-	-li-	2ryy	2ryy	2r	2r
.	.	.	.	.	16ff\	.	.	.	.	.	.	.	.	.	.	.
8B\	.	.	.	.	16aa\	.	8B\	.	.	.	.	.	.	.	.	.
.	.	.	.	.	16ff\JJ	.	.	.	.	.	.	.	.	.	.	.
8c\	3	.	.	.	16ee\LL	.	8c\	.	-li-	4ee\)	.	.	.	.	.	.
.	.	.	.	.	16ee\	.	.	.	.	.	.	.	.	.	.	.
8F#X\J	.	.	.	.	16gg\	.	8F#X\J	.	.	.	.	.	.	.	.	.
.	.	.	.	.	16ee\JJ	.	.	.	.	.	.	.	.	.	.	.
=68	=68	=68	=68	=68	=68	=68	=68	=68	=68	=68	=68	=68	=68	=68	=68	=68
!	!	!	!	!	!LO:TX:t=P:problem=mixed beam	!	!	!	!	!	!	!	!	!	!	!
8G\	5 3	.	2r	.	16dd\LL	.	8G\	-tem	-us	8dd\	-tem	-us	2ryy	2ryy	2r	2r
.	.	.	.	.	16g/	.	.	.	.	.	.	.	.	.	.	.
8r	.	.	.	.	16f#X/	.	8r	.	.	8r	.	.	.	.	.	.
.	.	.	.	.	16g/JJ	.	.	.	.	.	.	.	.	.	.	.
8G\	.	.	.	.	16a/LL	.	8r	.	.	8r	.	.	.	.	.	.
.	.	.	.	.	16b/	.	.	.	.	.	.	.	.	.	.	.
8r	.	.	.	.	16cc/	.	8G\	le-	Pa-	8gg\	le-	Pa-	.	.	.	.
.	.	.	.	.	16dd/JJ	.	.	.	.	.	.	.	.	.	.	.
!	!	!	!	!	!	!	!	!	!	!LO:LB:g=original	!	!	!	!	!	!
=69	=69	=69	=69	=69	=69	=69	=69	=69	=69	=69	=69	=69	=69	=69	=69	=69
!	!	!	!	!	!	!	!	!	!	!	!	!	!	!	!LO:TX:t=P:problem=wężowate segno na kresce	!LO:TX:t=P:problem=wężowate segno na kresce
8G\L	7 5	.	2r	.	16ee\LL	.	8G\L	-tan-	.	4ff\	-ta-	.	2ryy	2ryy	2r	2r
.	.	.	.	.	16ff\	.	.	.	.	.	.	.	.	.	.	.
8B\	.	.	.	.	16aa\	.	8B\	.	.	.	.	.	.	.	.	.
.	.	.	.	.	16ff\JJ	.	.	.	.	.	.	.	.	.	.	.
8c\	.	.	.	.	16ff\LL	.	8c\	.	.	4ee\	.	.	.	.	.	.
.	.	.	.	.	16ee\	.	.	.	.	.	.	.	.	.	.	.
8F#X\J	.	.	.	.	16gg\	.	8F#X\J	.	.	.	.	.	.	.	.	.
.	.	.	.	.	16ee\JJ	.	.	.	.	.	.	.	.	.	.	.
=70	=70	=70	=70	=70	=70	=70	=70	=70	=70	=70	=70	=70	=70	=70	=70	=70
!	!	!	!LO:TX:t=P:problem=wężowate segno na kresce	!	!	!	!	!	!	!	!	!	!	!	!	!
16G\LL	4 3	.	2r	.	16dd\LL	.	8G\	-tem	-tris	8dd\	-tem	-tris	2ryy	2ryy	2ryy	2ryy
16G\	.	.	.	.	16g\	.	.	.	.	.	.	.	.	.	.	.
16D\	.	.	.	.	16b\	.	8r	.	.	8r	.	.	.	.	.	.
16BB\JJ	.	.	.	.	16dd\JJ	.	.	.	.	.	.	.	.	.	.	.
8GG/	.	.	.	.	8gg\L	.	8r	.	.	8r	.	.	.	.	.	.
!LO:TX:t=P:problem=wężowate segno na kresce	!	!	!	!	!	!	!	!	!	!	!	!	!	!	!	!
8r	.	.	.	.	16gg\L	.	16G\LL	Lau	Glo	16gg\LL	Lau	Glo	.	.	.	.
!	!	!	!	!	!LO:TX:t=P:problem=wężowate segno na kresce	!	!	!	!	!LO:TX:t=P:problem=wężowate segno na kresce	!	!	!	!	!	!
.	.	.	.	.	16ff\JJ	.	32A\L	.	.	16ff\JJ	.	.	.	.	.	.
!	!	!	!	!	!	!	!LO:TX:t=P:problem=wężowate segno na kresce	!	!	!	!	!	!	!	!	!
.	.	.	.	.	.	.	32B\JJJ	.	.	.	.	.	.	.	.	.
=71||	=71||	=71||	=71||	=71||	=71||	=71||	=71||	=71||	=71||	=71||	=71||	=71||	=71||	=71||	=71||	=71||
*>F	*	*	*>F	*	*>F	*	*>F	*	*	*>F	*	*	*>F	*>F	*>F	*>F
!	!	!	!	!	!	!	!	!	!	!LO:TX:a:i:t=Solo	!	!	!	!	!LO:TX:a:i:t=14	!
8C/	.	.	2r	.	16c/LL	.	2r	.	.	4ee\	Glo-	Quo-	2ryy	2ryy	2r	2r
.	.	.	.	.	16g/	.	.	.	.	.	.	.	.	.	.	.
8r	.	.	.	.	16e/	.	.	.	.	.	.	.	.	.	.	.
.	.	.	.	.	16g/JJ	.	.	.	.	.	.	.	.	.	.	.
*	*	*	*	*	*rep	*	*	*	*	*	*	*	*	*	*	*
8c\	.	.	.	.	16c/LL	.	.	.	.	16b\LL	-ri-	.	.	.	.	.
.	.	.	.	.	16g/	.	.	.	.	16cc\JJ	.	.	.	.	.	.
8r	.	.	.	.	16e/	.	.	.	.	16ee\LL	-a	.	.	.	.	.
.	.	.	.	.	16g/JJ	.	.	.	.	16aa\JJ	.	.	.	.	.	.
*	*	*	*	*	*Xrep	*	*	*	*	*	*	*	*	*	*	*
=72	=72	=72	=72	=72	=72	=72	=72	=72	=72	=72	=72	=72	=72	=72	=72	=72
8BB/	.	.	2r	.	16B/LL	.	2r	.	.	8.gg\L	pa-	-ni-	2ryy	2ryy	2r	2r
.	.	.	.	.	16g/	.	.	.	.	.	.	.	.	.	.	.
8r	.	.	.	.	16d/	.	.	.	.	.	.	.	.	.	.	.
.	.	.	.	.	16g/JJ	.	.	.	.	16ff\Jk	.	.	.	.	.	.
*	*	*	*	*	*rep	*	*	*	*	*	*	*	*	*	*	*
8B\	.	.	.	.	16B/LL	.	.	.	.	4dd\	-tri	-am	.	.	.	.
.	.	.	.	.	16g/	.	.	.	.	.	.	.	.	.	.	.
8r	.	.	.	.	16d/	.	.	.	.	.	.	.	.	.	.	.
.	.	.	.	.	16g/JJ	.	.	.	.	.	.	.	.	.	.	.
*	*	*	*	*	*Xrep	*	*	*	*	*	*	*	*	*	*	*
!	!	!	!	!	!LO:LB:g=original	!	!	!	!	!	!	!	!	!	!	!
=73	=73	=73	=73	=73	=73	=73	=73	=73	=73	=73	=73	=73	=73	=73	=73	=73
8AA/	.	.	2r	.	16d/LL	.	2r	.	.	4cc\	glo-	tu	2ryy	2ryy	2r	2r
.	.	.	.	.	16cc/	.	.	.	.	.	.	.	.	.	.	.
8r	.	.	.	.	16a/	.	.	.	.	.	.	.	.	.	.	.
.	.	.	.	.	16cc/JJ	.	.	.	.	.	.	.	.	.	.	.
*	*	*	*	*	*rep	*	*	*	*	*	*	*	*	*	*	*
8A\	.	.	.	.	16d/LL	.	.	.	.	16f#X/LL	-ri-	.	.	.	.	.
.	.	.	.	.	16cc/	.	.	.	.	16a\JJ	.	.	.	.	.	.
8r	.	.	.	.	16a/	.	.	.	.	16cc\LL	-a	.	.	.	.	.
.	.	.	.	.	16cc/JJ	.	.	.	.	16ee\JJ	.	.	.	.	.	.
*	*	*	*	*	*Xrep	*	*	*	*	*	*	*	*	*	*	*
=74	=74	=74	=74	=74	=74	=74	=74	=74	=74	=74	=74	=74	=74	=74	=74	=74
8GG/	.	.	2r	.	16d/LL	.	2r	.	.	8.dd\	fi-	so-	2ryy	2ryy	2r	2r
.	.	.	.	.	16b/	.	.	.	.	.	.	.	.	.	.	.
8r	.	.	.	.	16g/	.	.	.	.	.	.	.	.	.	.	.
.	.	.	.	.	16b/JJ	.	.	.	.	16b\	-li-	.	.	.	.	.
*	*	*	*	*	*rep	*	*	*	*	*	*	*	*	*	*	*
8G\	.	.	.	.	16d/LL	.	.	.	.	4g\	-o	-lus	.	.	.	.
.	.	.	.	.	16b/	.	.	.	.	.	.	.	.	.	.	.
8r	.	.	.	.	16g/	.	.	.	.	.	.	.	.	.	.	.
.	.	.	.	.	16b/JJ	.	.	.	.	.	.	.	.	.	.	.
*	*	*	*	*	*Xrep	*	*	*	*	*	*	*	*	*	*	*
=75	=75	=75	=75	=75	=75	=75	=75	=75	=75	=75	=75	=75	=75	=75	=75	=75
8BB/	6 3	.	2r	.	16B/LL	.	2r	.	.	8.gg\	et	tu	2ryy	2ryy	2r	2r
.	.	.	.	.	16g/	.	.	.	.	.	.	.	.	.	.	.
8r	.	.	.	.	16d/	.	.	.	.	.	.	.	.	.	.	.
.	.	.	.	.	16g/JJ	.	.	.	.	16bb\	spi-	.	.	.	.	.
*	*	*	*	*	*rep	*	*	*	*	*	*	*	*	*	*	*
8B\	#	.	.	.	16B/LL	.	.	.	.	16aa\LL	-ri-	so-	.	.	.	.
.	.	.	.	.	16g/	.	.	.	.	16gg\JJ	.	.	.	.	.	.
!	!	!	!	!	!	!	!	!	!	!LO:N:vis=8	!	!	!	!	!	!
8r	.	.	.	.	16d/	.	.	.	.	16ff#X\	-tu-	-lus	.	.	.	.
!	!	!	!	!	!	!	!	!	!	!LO:N:vis=8	!	!	!	!	!	!
.	.	.	.	.	16g/JJ	.	.	.	.	16gg\	-i	.	.	.	.	.
*	*	*	*	*	*Xrep	*	*	*	*	*	*	*	*	*	*	*
!LO:LB:g=original	!	!	!	!	!	!	!	!	!	!	!	!	!	!	!	!
=76	=76	=76	=76	=76	=76	=76	=76	=76	=76	=76	=76	=76	=76	=76	=76	=76
8C/	6 3	.	2r	.	16c/LL	.	2r	.	.	8.ee\	et	Do-	2ryy	2ryy	2r	2r
.	.	.	.	.	16a/	.	.	.	.	.	.	.	.	.	.	.
8r	.	.	.	.	16e/	.	.	.	.	.	.	.	.	.	.	.
.	.	.	.	.	16a/JJ	.	.	.	.	16gg\	spi-	.	.	.	.	.
*	*	*	*	*	*rep	*	*	*	*	*	*	*	*	*	*	*
8c\	.	.	.	.	16c/LL	.	.	.	.	16ff#X\LL	-ri-	.	.	.	.	.
.	.	.	.	.	16a/	.	.	.	.	16ee\JJ	.	.	.	.	.	.
8r	.	.	.	.	16e/	.	.	.	.	16dd\	-tu-	.	.	.	.	.
.	.	.	.	.	16a/JJ	.	.	.	.	16cc\	-i	.	.	.	.	.
*	*	*	*	*	*Xrep	*	*	*	*	*	*	*	*	*	*	*
=77	=77	=77	=77	=77	=77	=77	=77	=77	=77	=77	=77	=77	=77	=77	=77	=77
!LO:TX:t=P:problem=niejasny zapis cyfrowania	!	!	!	!	!	!	!	!	!	!	!	!	!	!	!	!
8d\	3 4	.	2r	.	16d/LL	.	2r	.	.	8.b\L	San-	.	2ryy	2ryy	2r	2r
.	.	.	.	.	16b/	.	.	.	.	.	.	.	.	.	.	.
8r	.	.	.	.	16g/	.	.	.	.	.	.	.	.	.	.	.
.	.	.	.	.	16b/JJ	.	.	.	.	16dd\Jk	.	.	.	.	.	.
8D\	7 5 #	.	.	.	16d/LL	.	.	.	.	16dd\LL	.	-mi-	.	.	.	.
.	.	.	.	.	16cc/	.	.	.	.	16cc\	.	.	.	.	.	.
!	!	!	!	!	!LO:SIC:v:s=15f#/	!	!	!	!	!	!	!	!	!	!	!
8r	.	.	.	.	16f/	.	.	.	.	16b\	.	.	.	.	.	.
.	.	.	.	.	16cc/JJ	.	.	.	.	16a\JJ	.	.	.	.	.	.
=78	=78	=78	=78	=78	=78	=78	=78	=78	=78	=78	=78	=78	=78	=78	=78	=78
!LO:TX:t=P:problem=mixed beam	!	!	!	!	!LO:TX:t=P:problem=mixed beam	!	!	!	!	!	!	!	!	!	!	!
16G\LL	8 3	.	2r	.	16g/LL	.	2r	.	.	4g\	-cto	-nus	2ryy	2ryy	2r	2r
16GG/	.	.	.	.	16gg\	.	.	.	.	.	.	.	.	.	.	.
16BB/	.	.	.	.	16dd\	.	.	.	.	.	.	.	.	.	.	.
16D/JJ	.	.	.	.	16b\JJ	.	.	.	.	.	.	.	.	.	.	.
8G\	.	.	.	.	4g/	.	.	.	.	4r	.	.	.	.	.	.
8r	.	.	.	.	.	.	.	.	.	.	.	.	.	.	.	.
=79	=79	=79	=79	=79	=79	=79	=79	=79	=79	=79	=79	=79	=79	=79	=79	=79
8GG/	3	.	2r	.	16f/LL	.	2r	.	.	8b\	Si-	So-	2ryy	2ryy	2r	2r
.	.	.	.	.	16g/	.	.	.	.	.	.	.	.	.	.	.
8r	.	.	.	.	16f/	.	.	.	.	8b\	-cut	-lus	.	.	.	.
.	.	.	.	.	16g/JJ	.	.	.	.	.	.	.	.	.	.	.
8G\	4	.	.	.	16e/LL	.	.	.	.	8cc\	e-	.	.	.	.	.
.	.	.	.	.	16g/	.	.	.	.	.	.	.	.	.	.	.
8r	.	.	.	.	16e/	.	.	.	.	8cc\	-rat	.	.	.	.	.
.	.	.	.	.	16g/JJ	.	.	.	.	.	.	.	.	.	.	.
=80	=80	=80	=80	=80	=80	=80	=80	=80	=80	=80	=80	=80	=80	=80	=80	=80
8GG/	5	.	2r	.	16B/LL	.	2r	.	.	8dd\	in	al-	2ryy	2ryy	2r	2r
.	.	.	.	.	16g/	.	.	.	.	.	.	.	.	.	.	.
8r	.	.	.	.	16B/	.	.	.	.	8dd\	prin-	-ti-	.	.	.	.
.	.	.	.	.	16g/JJ	.	.	.	.	.	.	.	.	.	.	.
8G\	6	.	.	.	16c/LL	.	.	.	.	8ee\	-ci-	.	.	.	.	.
.	.	.	.	.	16g/	.	.	.	.	.	.	.	.	.	.	.
8r	.	.	.	.	16e/	.	.	.	.	8ee\	-pi-	.	.	.	.	.
.	.	.	.	.	16g/JJ	.	.	.	.	.	.	.	.	.	.	.
=81	=81	=81	=81	=81	=81	=81	=81	=81	=81	=81	=81	=81	=81	=81	=81	=81
8G\L	7 5	.	2r	.	16d/LL	.	2r	.	.	8ff\	-o	-si-	2ryy	2ryy	2r	2r
.	.	.	.	.	16g/	.	.	.	.	.	.	.	.	.	.	.
8B\	.	.	.	.	16f/	.	.	.	.	8dd\	et	.	.	.	.	.
.	.	.	.	.	16g/JJ	.	.	.	.	.	.	.	.	.	.	.
!	!	!	!	!	!LO:LB:g=original	!	!	!	!	!	!	!	!	!	!	!
8c\	3	.	.	.	16c/LL	.	.	.	.	8ee\	nunc	-[[mus]]-	.	.	.	.
.	.	.	.	.	16g/	.	.	.	.	.	.	.	.	.	.	.
8F#X\J	.	.	.	.	16e/	.	.	.	.	8cc\	et	.	.	.	.	.
.	.	.	.	.	16g/JJ	.	.	.	.	.	.	.	.	.	.	.
!	!	!	!	!	!	!	!	!	!	!LO:LB:g=original	!	!	!	!	!	!
=82	=82	=82	=82	=82	=82	=82	=82	=82	=82	=82	=82	=82	=82	=82	=82	=82
!LO:TX:t=P:problem=mixed beam	!	!	!	!	!	!	!	!	!	!	!	!	!	!	!	!
16G\LL	5 3	.	2r	.	16G/LL	.	2r	.	.	8ee\	sem-	-mus	2ryy	2ryy	2r	2r
16GG/	.	.	.	.	16g/	.	.	.	.	.	.	.	.	.	.	.
16BB/	.	.	.	.	16b/	.	.	.	.	8dd\	-per	.	.	.	.	.
16D/JJ	.	.	.	.	16dd/JJ	.	.	.	.	.	.	.	.	.	.	.
8G\	.	.	.	.	16gg\LL	.	.	.	.	4r	.	.	.	.	.	.
.	.	.	.	.	16dd\	.	.	.	.	.	.	.	.	.	.	.
8r	.	.	.	.	16b\	.	.	.	.	.	.	.	.	.	.	.
.	.	.	.	.	16g\JJ	.	.	.	.	.	.	.	.	.	.	.
=83	=83	=83	=83	=83	=83	=83	=83	=83	=83	=83	=83	=83	=83	=83	=83	=83
8GG/	3	.	2r	.	16f/LL	.	2r	.	.	8b\	et	Je-	2ryy	2ryy	2r	2r
.	.	.	.	.	16g/	.	.	.	.	.	.	.	.	.	.	.
8r	.	.	.	.	16f/	.	.	.	.	8b\	in	-su	.	.	.	.
.	.	.	.	.	16g/JJ	.	.	.	.	.	.	.	.	.	.	.
*	*	*	*	*	*	*	*	*	*	*	*	*ij	*	*	*	*
8G\	4	.	.	.	16e/LL	.	.	.	.	8cc\	se-	Je-	.	.	.	.
.	.	.	.	.	16g/	.	.	.	.	.	.	.	.	.	.	.
8r	.	.	.	.	16e/	.	.	.	.	16cc\	-cu-	-su	.	.	.	.
.	.	.	.	.	16g/JJ	.	.	.	.	16cc\	-la	.	.	.	.	.
=84	=84	=84	=84	=84	=84	=84	=84	=84	=84	=84	=84	=84	=84	=84	=84	=84
8GG/	5	.	2r	.	16B/LL	.	2r	.	.	8dd\	se-	Je-	2ryy	2ryy	2r	2r
.	.	.	.	.	16g/	.	.	.	.	.	.	.	.	.	.	.
8r	.	.	.	.	16B/	.	.	.	.	8dd\	-cu-	-su	.	.	.	.
.	.	.	.	.	16g/JJ	.	.	.	.	.	.	.	.	.	.	.
8G\	6	.	.	.	16c/LL	.	.	.	.	8ee\	-lo-	Je-	.	.	.	.
.	.	.	.	.	16g/	.	.	.	.	.	.	.	.	.	.	.
8r	.	.	.	.	16e/	.	.	.	.	8ee\	-rum	-su	.	.	.	.
.	.	.	.	.	16g/JJ	.	.	.	.	.	.	.	.	.	.	.
=85	=85	=85	=85	=85	=85	=85	=85	=85	=85	=85	=85	=85	=85	=85	=85	=85
!	!	!	!	!	!	!	!	!	!	!	!	!	!	!	!LO:TX:t=P:problem=wężowate segno na kresce	!LO:TX:t=P:problem=wężowate segno na kresce
8G\L	7 5	.	2r	.	16d/LL	.	2r	.	.	8ff\	a-	Je-	2ryy	2ryy	2r	2r
.	.	.	.	.	16g/	.	.	.	.	.	.	.	.	.	.	.
8B\	.	.	.	.	16f/	.	.	.	.	8dd\	.	-su	.	.	.	.
.	.	.	.	.	16g/JJ	.	.	.	.	.	.	.	.	.	.	.
8c\	3	.	.	.	16c/LL	.	.	.	.	8ee\	.	Je-	.	.	.	.
.	.	.	.	.	16g/	.	.	.	.	.	.	.	.	.	.	.
8F#X\J	.	.	.	.	16e/	.	.	.	.	8cc\	.	-su	.	.	.	.
*	*	*	*	*	*	*	*	*	*	*	*	*Xij	*	*	*	*
.	.	.	.	.	16g/JJ	.	.	.	.	.	.	.	.	.	.	.
!LO:LB:g=original	!	!	!	!	!	!	!LO:LB:g=original	!	!	!	!	!	!	!	!	!
=86	=86	=86	=86	=86	=86	=86	=86	=86	=86	=86	=86	=86	=86	=86	=86	=86
!	!	!	!LO:TX:t=P:problem=wężowate segno na kresce	!	!	!	!	!	!	!	!	!	!	!	!	!
16G\LL	5 3	.	2r	.	16G/LL	.	4r	.	.	8ee\	.	Chri-	2ryy	2ryy	2ryy	2ryy
16G\	.	.	.	.	16g/	.	.	.	.	.	.	.	.	.	.	.
16D\	.	.	.	.	16b/	.	.	.	.	8dd\	-men	-ste	.	.	.	.
16BB/JJ	.	.	.	.	16dd/JJ	.	.	.	.	.	.	.	.	.	.	.
8GG/	.	.	.	.	8gg\L	.	8r	.	.	8r	.	.	.	.	.	.
!LO:TX:t=P:problem=wężowate segno na kresce	!	!	!	!	!	!	!	!	!	!	!	!	!	!	!	!
8r	.	.	.	.	16gg\L	.	16G\LL	Lau	Glo	16gg\LL	Lau	Glo	.	.	.	.
!	!	!	!	!	!LO:TX:t=P:problem=wężowate segno na kresce	!	!	!	!	!LO:TX:t=P:problem=wężowate segno na kresce	!	!	!	!	!	!
.	.	.	.	.	16ff\JJ	.	32A\L	.	.	16ff\JJ	.	.	.	.	.	.
!	!	!	!	!	!	!	!LO:TX:t=P:problem=wężowate segno na kresce	!	!	!	!	!	!	!	!	!
.	.	.	.	.	.	.	32B\JJJ	.	.	.	.	.	.	.	.	.
==	==	==	==	==	==	==	==	==	==	==	==	==	==	==	==	==
*-	*-	*-	*-	*-	*-	*-	*-	*-	*-	*-	*-	*-	*-	*-	*-	*-
!!!system-decoration: [(g1)][(g2)][(g3)][(g4)]s9
!!!AIN: 1 bass 2 clars 2 cor 1 organ 1 soprn 2 violn
!!!ENC: Andrzej Gręziak
!!!END: 2021-12-02
!!!ENC: Kamil Watkowski
!!!END: 2021-12-24
!!!RDF**kern: | = vertical stroke
